img/site-logo.svg

<svg width="148" height="23" viewBox="0 0 148 23" fill="none" xmlns="http://www.w3.org/2000/svg">
<path d="M12.3398 23C9.98936 23 7.87397 22.5156 5.99362 21.5467C4.13463 20.5568 2.67095 19.1877 1.60257 17.4396C0.534191 15.6914 0 13.7115 0 11.5C0 9.28846 0.534191 7.30861 1.60257 5.56044C2.67095 3.81227 4.13463 2.45375 5.99362 1.48489C7.87397 0.494963 9.98936 0 12.3398 0C14.3911 0 16.2394 0.358059 17.8847 1.07418C19.53 1.79029 20.8975 2.82234 21.9873 4.17033L17.9488 7.77198C16.4958 6.04487 14.733 5.18132 12.6603 5.18132C11.4424 5.18132 10.3526 5.4446 9.39107 5.97115C8.4509 6.49771 7.71371 7.24542 7.17952 8.21429C6.6667 9.16209 6.41029 10.2573 6.41029 11.5C6.41029 12.7427 6.6667 13.8484 7.17952 14.8173C7.71371 15.7651 8.4509 16.5023 9.39107 17.0288C10.3526 17.5554 11.4424 17.8187 12.6603 17.8187C14.733 17.8187 16.4958 16.9551 17.9488 15.228L21.9873 18.8297C20.8975 20.1777 19.53 21.2097 17.8847 21.9258C16.2394 22.6419 14.3911 23 12.3398 23Z" fill="#222222"/>
<path d="M26.4194 0.442308H32.7656V17.5975H43.4708V22.5577H26.4194V0.442308Z" fill="#222222"/>
<path d="M62.8671 18.261H53.3799L51.6171 22.5577H45.1427L55.0466 0.442308H61.2966L71.2326 22.5577H64.63L62.8671 18.261Z" fill="#222222"/>
<path d="M78.2831 5.40247H71.3921V0.442308H91.4883V5.40247H84.6293V22.5577H78.2831V5.40247Z" fill="#222222"/>
<path d="M105.463 23C102.13 23 99.534 22.1049 97.675 20.3146C95.8374 18.5243 94.9186 15.9863 94.9186 12.7006V0.442308L105.463 5.25117C105.463 5.25117 101.265 5.33929 101.265 8.625C101.265 11.9107 101.265 12.511 101.265 12.511C101.265 16.0495 102.686 17.8187 105.528 17.8187C108.348 17.8187 109.758 16.0495 109.758 12.511C109.758 12.511 109.753 11.9107 109.753 8.625C109.753 5.33929 105.463 5.25117 105.463 5.25117L116.008 0.442308V12.7006C116.008 15.9863 115.079 18.5243 113.22 20.3146C111.382 22.1049 108.797 23 105.463 23Z" fill="#222222"/>
<path d="M142.167 22.5577L142.103 10.8365L136.333 20.3777H133.513L127.776 11.1525V22.5577H121.91V0.442308H127.135L135.019 13.206L142.712 0.442308H147.936L148 22.5577H142.167Z" fill="#222222"/>
</svg>

<svg width="148" height="23" fill="none" xmlns="http://www.w3.org/2000/svg"><path d="M12.3 23C10 23 8 22.5 6 21.5a11.2 11.2 0 0 1-6-10 11.2 11.2 0 0 1 6-10C7.9.5 10 0 12.3 0c2 0 4 .4 5.6 1 1.6.8 3 1.8 4 3.2l-4 3.6a6.7 6.7 0 0 0-5.2-2.6c-1.3 0-2.3.2-3.3.8-1 .5-1.7 1.2-2.2 2.2-.5 1-.8 2-.8 3.3a7 7 0 0 0 .8 3.3c.5 1 1.3 1.7 2.2 2.2 1 .6 2 .8 3.3.8 2 0 3.8-.8 5.2-2.6l4 3.6c-1 1.4-2.4 2.4-4 3.1-1.7.7-3.5 1.1-5.6 1.1ZM26.4.4h6.4v17.2h10.7v5h-17V.4ZM62.9 18.3h-9.5l-1.8 4.3h-6.5L55.1.4h6.2l10 22.2h-6.7L63 18.3ZM78.3 5.4h-7v-5h20.2v5h-6.9v17.2h-6.3V5.4ZM105.5 23c-3.4 0-6-.9-7.8-2.7-1.9-1.8-2.8-4.3-2.8-7.6V.4l10.6 4.9s-4.2 0-4.2 3.3v4c0 3.4 1.4 5.2 4.2 5.2 2.8 0 4.3-1.8 4.3-5.3V8.6c0-3.3-4.3-3.3-4.3-3.3L116 .4v12.3c0 3.3-1 5.8-2.8 7.6a10.7 10.7 0 0 1-7.7 2.7ZM142.2 22.6l-.1-11.8-5.8 9.6h-2.8l-5.7-9.2v11.4h-5.9V.4h5.2l8 12.8L142.6.4h5.2l.1 22.2h-5.8Z" fill="#222"/></svg>
